X: 4278
T: SHARP'S HORNPIPE
%R: hornpipe, reel
B: James Kerr "Merry Melodies" v.4 p.30 #278
Z: 2016 John Chambers <jc:trillian.mit.edu>
M: C|
L: 1/8
K: D
|:\
F2F2 FdAF | G2G2 GdBG |\
g2ec g2ec |[1 d2(cd) fecA :|[2 A2Bc d2z2 ::\
Bcde fedc | BcB^A B2F2 |
Bcde fedc | BcB^A B2z2 |\
Bcde fedc | BcB^A B2F2 |\
f2 (3(efe) d2c2 |[1 B2d2B2z2 :|[2 BdcB AGFE |]

%%sep 1 1 500
%%sep 1 1 500

